X:1
T:Flute Sonata in C major, BWV 1033
T:Johann Sebastian Bach (1685-1750) Arr. by : Ferdinand David (1810-1873)
T:Flute Sonata in C-Dur, BWV 1033
T:Transcribed for Recorder, Fagotto, Harpsichord from IMSLP#324593 PDF File
T:Public Domain
T:Public Domain
T:Public Domain
T:Public Domain
T:Public Domain
C:Flute Sonata in C major, BWV 1033
Z:Public Domain
%%score [ ( 1 2 ) ( 3 4 ) ] { ( 5 6 8 ) | ( 7 9 ) }
L:1/8
Q:1/4=60
M:4/4
K:Eb
V:1 treble nm="Altflöte" snm="A."
V:2 treble 
V:3 bass nm="Fagotto" snm="Bsn."
V:4 bass 
V:5 treble nm="Cembalo" snm="Hch."
V:6 treble 
V:8 treble 
V:7 bass 
V:9 bass 
V:1
"^Andante" g/(e/d/e/) f/(B/d/f/) a/(f/e/f/) g/(c/e/g/) | %1
 c'/(a/g/a/) f/(e'/d'/a/) g/(b/g/d/) e/(g/f/e/) | %2
 a/(e/a/b/) c'/(a/g/a/) (f/=e/)(f/a/) _d'/(b/a/g/) | (f/=e/d/c/) a/(e/f/=B/) (c/e/f/)b/ Pg>f | %4
 (f/g/a/)c/ (_d/f/B/)a/ (g/=d/e/)B/ (c/e/A/)c/ | (f/g/a/)c/ (B/_d/a/)g/ (a/e/c/)e/ A/(e/f/g/) | %6
 (a/c'/)f/e/ d/(f/g/a/) b/(f/g/d/) e/(g/a/b/) | (c'/e'/a/)g/ (a/c'/f/)a/ (g/f/e/_d/) (c/B/A/)c/ | %8
 B/(a/g/f/) (g/b/d/)f/ e/(c/e/g/) c'/d'/e'- | e'/d'/4c'/4b/a/ gTf/e/"^presto"[Q:1/4=120] eg/f/ ge | %10
 cada ge/d/ eB | GbAc' bg/f/ ge | ce'ac' fa/g/ af | df'bd' gb/a/ bg | %14
 e/e'/b/e'/ g/e'/b/e'/ e/b/g/b/ e'/b/g/b/ | _d/g/e/g/ b/g/e/g/ ca/g/ ae' | caAf Bg/f/ ge' | %17
 BgGe Af/e/ fd' | AfFd G/B/c/d/ e/d/c/B/ | g/f/e/d/ b/a/g/f/ g/e/f/g/ a/g/f/e/ | %20
 c'/b/a/g/ e'/_d'/c'/b/ c'/b/a/g/ a/g/f/e/ | d/a/f/a/ c'/a/f/a/ b/a/g/f/ g/f/e/d/ | %22
 c/g/e/g/ b/g/e/g/ a/g/f/e/ f/e/d/c/ | B/f/d/f/ a/f/d/f/ ge/d/ eg | ce'Bg =A2 B2- | %25
 B2 =A2 !fermata!B4 |][M:3/4]"^Allegro"[Q:1/4=100] e/B/c/d/ e/d/e/f/ g/f/e/g/ | %27
 f/e/d/c/ B/c/d/e/ f/g/a/f/ | g/B/c/d/ e/d/e/f/ g/f/e/g/ | f/e/d/c/ B2 z2 | %30
 b/a/g/a/ b/a/g/f/ e/_d/c/B/ | c/_d/e/c/ A2 z2 | c'/b/=a/b/ c'/b/a/g/ f/e/d/c/ | d/e/f/d/ B2 z2 | %34
 d'/c'/=b/c'/ d'/c'/b/=a/ g/f/e/d/ | e/d/c/d/ e/f/g/f/ e/d/c/B/ | c/B/=A/G/ A/c/f/e/ d/c/B/d/ | %37
 c/B/=A/G/ F2 z2 | f/g/f/e/ d/e/f/g/ =a/b/c'/a/ | b/c'/b/=a/ g/a/b/a/ g/f/e/d/ | %40
 e/f/e/d/ c/d/e/f/ g/=a/b/g/ | =a/b/a/g/ f/g/a/b/ c'/d'/e'/c'/ | d'/b/=a/b/ e'/b/a/b/ f'/b/a/b/ | %43
 g/b/e'/b/ f/b/d'/b/ e/b/c'/b/ | f/b/d'/b/ c'/b/=a/g/ f/e/d/c/ | Bc/d/ e/f/g/=a/ b2 :: %46
 b/f/g/=a/ b/a/b/c'/ d'/c'/b/d'/ | c'/b/=a/g/ f/g/a/b/ c'/d'/e'/c'/ | %48
 d'/f/g/=a/ b/a/b/c'/ d'/c'/b/d'/ | c'/b/=a/g/ f2- f/g/a/=b/ | %50
 c'/g/=a/=b/ c'/b/c'/d'/ e'/d'/c'/e'/ | d'/c'/=b/=a/ g/a/b/c'/ d'/e'/f'/d'/ | %52
 e'/g/=a/=b/ c'/b/c'/d'/ e'/d'/c'/e'/ | d'/c'/=b/=a/ g2 z2 | z/ c'/=b/c'/ g/c'/b/=a/ g/f/e/d/ | %55
 c/e/f/=a/ c'/e'/c'/a/ f/e'/d'/c'/ | d'/b/=a/b/ f/b/a/g/ f/e/d/c/ | %57
 B/d/e/g/ b/d'/b/g/ e/d'/c'/=b/ | c'4- c'/b/a/g/ | f/c'/f'/c'/ g/c'/e'/c'/ a/c'/d'/c'/ | %60
 g/c'/e'/c'/ d'/c'/=b/=a/ g/f/_a/g/ | f/e/d/c/ e4- | e/c'/=a/f/ c/f/a/c'/ e'/d'/e'/c'/ | %63
 d'/e'/f'/d'/ a4- | a/f/d/B/ F/B/d/f/ a/g/a/f/ | g/e/f/g/ a/f/g/a/ b/c'/_d'/b/ | %66
 c'/b/a/b/ c'/e'/d'/c'/ f'/e'/d'/c'/ | b/a/g/a/ b/d'/c'/b/ e'/d'/c'/b/ | %68
 a/g/f/e/ d/c/B/c/ d/e/f/g/ | a/f/g z/ a/g/a/ !trill(!Ta3/2!trill)!g/4a/4 | %70
 b/g/e/g/ c/e/a/e/ g/e/B/e/ | f/e/c/e/ g/e/B/e/ a/e/A/e/ | g/e/B/e/ f/g/ a2 g/f/ | %73
 e/B/e/g/ b/e'/b/g/ e2 :| x/8 |[M:4/4]"^Adagio"[Q:1/4=60] g2 c'4 =bc'/d'/ | %76
 g/c'/=b/c'/ f3/2e/4f/4 ec a2- | a/(B/4c/4d/4e/4f/) ge ca/f/ eTd/e/ | e2 !turn!e4 de/f/ | %79
 B/e/d/e/ TA3/2G/4A/4 (Gg- g/)=a/b/c'/ | f2- f/b/=a/b/ e4- | ed/c/ d/f/g/a/ b/(g/=e/f/) f2- | %82
 f/4g/4f/4=e/4f/g/ Pe>f f2 !turn!f2- | f/(G/4=A/4=B/4c/4d/) ee'- e'/f/e/f/ d'2- | %84
 d'/4f/4e/4d/4e/g/ c'4 =bc'/d'/ | g/c'/=b/c'/ Tf3/2e/4f/4 ec a2- | %86
 a/(B/4c/4d/4e/4f/) g2- g/=b/c'/a/ f2- | f/=b/c'/d'/ (e/g/c'/)_g/ (=g/4f/4e/4d/4e/)c'/ Pd>c | c8 |] %89
[M:3/4]"^Menuett 1"[Q:1/4=120] g3 a Ta3/2g/4a/4 | b4 c'2 | b2 ag af | ga gf e2 | B2 e2 g2 | c2 f4 | %95
 d2 fd ec | B6 :: d3 e Te3/2d/4e/4 | fg a4 | ga/g/ fg/f/ ef/e/ | dB cd ef | g3 a Ta3/2g/4a/4 | %102
 b2 c'2 a2 | be (gf) (ed) | !fermata!e6!fine! ::"^Menuett 2" ga gf ed | cd Td3 c/d/ | ef de fd | %108
 ed cd ef | gf (ag) (fe) | ba (c'b) (ag) | fe (gf) (ed) |1 e6 :|2 e6 |: B(e fg fe) | f(d cB cd) | %116
 e(g fe dc) | dc ed cB | g(b g_g =gb) | e'(d' c'=b c'e') | d'(g c'b =ab) | (g6 | g)b g=e ce | %123
 fa fe ce | fa fd Bd | eg ed Bd | eg ec Ac | de fa gf | ed fe dc | =Bc de fd | e2 c'4 | %131
 d2 =bc' d'2 | gc (ed) (c=B) | !fermata!c6!D.C.! :| %134
V:2
 x8 | x8 | x8 | x8 | x8 | x8 | x8 | x8 | x8 | x8 | x8 | x8 | x8 | x8 | x8 | x8 | x8 | x8 | x8 | %19
 x8 | x8 | x8 | x8 | x8 | x8 | x8 |][M:3/4] x6 | x6 | x6 | x6 | x6 | x6 | x6 | x6 | x6 | x6 | x6 | %37
 x6 | x6 | x6 | x6 | x6 | x6 | x6 | x6 | x6 :: x6 | x6 | x6 | x6 | x6 | x6 | x6 | x6 | x6 | x6 | %56
 x6 | x6 | x6 | x6 | x6 | x6 | x6 | x6 | x6 | x6 | x6 | x6 | x6 | x6 | x6 | x6 | x6 | x6 :| | %75
[M:4/4] x8 | x2 Tg x5 | x8 | x8 | x2 B x5 | x8 | x8 | x8 | x8 | x8 | x2 g x5 | x6 g x | x8 | x8 |] %89
[M:3/4] x6 | x6 | x6 | x6 | x6 | x2 e2 x2 | x6 | c2 x4 :: x6 | x6 | x6 | x6 | x6 | x6 | x6 | x6 :: %105
 x6 | x6 | x6 | x6 | x6 | x6 | x6 |1 x6 :|2 x6 |: x6 | x6 | x6 | x6 | x6 | x6 | x6 | x6 | x6 | x6 | %124
 x6 | x6 | x6 | x6 | x6 | x6 | x6 | x6 | x6 | x6 :| %134
V:3
 E,,2 B,,2 F,,2 C,2 | A,,2 B,,2 E,,2 E,2 | C,2 A,,2 _D,2 B,,2 | C,2 F,,2 C,2 C,,2 | %4
 F,,2 B,,2 E,,2 A,,2 | _D,2 E,2 A,,2 A,2 | F,2 B,2 G,2 C2 | A,2 F,2 C2 A,2 | E,2 B,,2 C,2 A,,2 | %9
 B,,2 B,,,2 E,,4- | E,,8 | E,,8 | E,,8 | E,,8 | E,,8- | E,,8 | E,,8 | E,,8 | E,,8- | E,,8- | E,,8 | %21
 E,,8 | E,,8 | E,,8 | E,,6 D,,2 | C,,4 !fermata!B,,,4 |][M:3/4] E,B, G,B, E,B, | D,B, F,B, D,B, | %28
 E,B, G,B, E,B, | B,,B, A,B, F,A, | G,E, E,,E, G,,E, | A,,E, C,E, B,,E, | =A,,F, F,,F, A,,F, | %33
 B,,F, D,F, C,F, | =B,,D, G,,D, _B,,D, | C,E, G,,E, B,,E, | =A,,C, F,=A, B,B,, | F,E, F,G, F,E, | %38
 D,D F,D D,D | G,D B,D G,D | C,C E,C C,C | F,C =A,C F,C | B,,B, C,B, D,B, | E,B, F,B, G,B, | %44
 F,B, E,B, F,=A, | B,,B, F,D, B,,2 :: B,,F, D,F, B,,F, | =A,,F, C,F, A,,F, | B,,F, D,F, B,,F, | %49
 F,,F, E,F, D,F, | C,G, E,G, C,G, | =B,,G, D,G, B,,G, | C,G, E,G, C,G, | G,,G, D,G, F,G, | %54
 E,G, C,G, B,,G, | =A,,F, F,,F, A,,F, | B,,F, D,F, B,,F, | G,,E, E,,E, G,,E, | A,,E, C,E, B,,E, | %59
 A,,C, G,,C, F,,C, | G,,C, F,,C, G,,=B,, | C,C G,E, C,B, | =A,C F,C A,C | B,D B,F, D,F, | %64
 B,,B, C,B, D,B, | E,B, F,B, G,B, | A,C A,F, D,F, | G,B, G,E, C,E, | F,A, F,D, B,,D, | %69
 E,B,, E,,E, F,,E, | G,,E, A,,E, B,,E, | A,,E, B,,E, C,E, | B,,E, A,,E, B,,D, | E,E,, G,,B,, E,2 :| %74
 z/8 |[M:4/4] C,,D,,E,,F,, G,,A,,G,,F,, | E,,3 D,, C,,C, F,,G,,/A,,/ | %77
 B,,B,,, E,,F,,/G,,/ A,,F,,B,,B,,, | E,,F,,G,,A,, B,,C,B,,A,, | G,,3 F,, E,,E,/D,/ C,B,, | %80
 =A,,F,, B,,2- B,,A,,/G,,/ A,,F,, | B,,B,,,B,,A,, G,,2 A,,_D, | C,B,,C,C,, F,,G,,A,,B,, | %83
 C,C,CB, =A,G,/A,/ =B,A,/B,/ | CC,/D,/ E,F, G,A,G,F, | E,3 D, C,C F,G,/A,/ | %86
 B,B,, E,F,/G,/ A,/G,/F,/E,/ D,/E,/F,/D,/ | G,4 G,,4 | [C,,C,]8 |][M:3/4] E,2 B,2 F,2 | %90
 G,2 B,2 [A,E]2 | E3 E D2 | E2 B,2 G,2 | E,2 B,2 E2 | =A,2 C2 F,2 | B,2 D,2 [F,=A,]2 | %96
 B,2 F,2 B,,2 :: B,,B, A,B, G,B, | D,B, F,B, B,,B, | E,B, D,B, E,B, | B,,2 z B, CD | E2 B,2 C2 | %102
 G,2 A,2 F,2 | G,2 A,2 B,2 | E,3 B,, E,,2 :: C,2 C2 B,2 | A,2 F,2 G,2 | C,2 G,2 G,,2 | %108
 C,2 E,2 G,2 | C2 B,2 A,2 | G,2 F,2 E,2 | A,2 B,2 B,,2 |1 E,F, G,F, E,D, :|2 E,2 B,,2 E,,2 |: %114
 E,2 D,2 C,2 | D,2 G,2 G,,2 | C,2 F,2 F,,2 | B,,2 C,2 D,2 | E,2 E2 D2 | C2 E2 =A,2 | B,2 C2 D2 | %121
 G,F, G,A, G,F, | =E,2 C2 B,2 | A,2 z2 F,2 | D,2 B,2 A,2 | G,2 z2 E,2 | C,2 A,2 G,2 | %127
 F,2 D,2 =B,,2 | C,2 A,,2 F,,2 | G,,2 =B,,2 G,,2 | C,G,, A,,G,, F,,E,, | F,,D, G,,F,, E,,D,, | %132
 E,,2 F,,2 G,,2 | C,,6 :| %134
V:4
 x8 | x8 | x8 | x8 | x8 | x8 | x8 | x8 | x8 | x8 | x8 | x8 | x8 | x8 | x8 | x8 | x8 | x8 | x8 | %19
 x8 | x8 | x8 | x8 | x8 | x8 | x8 |][M:3/4] x6 | x6 | x6 | x6 | x6 | x6 | x6 | x6 | x6 | x6 | x6 | %37
 x6 | x6 | x6 | x6 | x6 | x6 | x6 | x6 | x6 :: x6 | x6 | x6 | x6 | x6 | x6 | x6 | x6 | x6 | x6 | %56
 x6 | x6 | x6 | x6 | x6 | x6 | x6 | x6 | x6 | x6 | x6 | x6 | x6 | x6 | x6 | x6 | x6 | x6 :| | %75
[M:4/4] x8 | x8 | x8 | x8 | x8 | x8 | x8 | x8 | x8 | x8 | x8 | x8 | x8 | x8 |][M:3/4] x6 | x6 | %91
 G,2 F,2 B,2 | x6 | x6 | x6 | x6 | x6 :: x6 | x6 | x6 | x6 | x6 | x6 | x6 | x6 :: x6 | x6 | x6 | %108
 x6 | x6 | x6 | x6 |1 x6 :|2 x6 |: x6 | x6 | x6 | x6 | x6 | x6 | x6 | x6 | x6 | x6 | x6 | x6 | x6 | %127
 x6 | x6 | x6 | x6 | x6 | x6 | x6 :| %134
V:5
 eBdB c>d e2 | ceed [Be]2 GB | Ae [Ec]2 [F_d]2 [Fd]2 | c2 A2 [FG]2 Gc | [CA]2 [_DA]2 GB A2 | %5
 A3 G A2- A/G/A/B/ | [Ac]2 [FB]2 [DB]2 [EG]2 | A>B [Ac]2 [Gc]2 [Ac]2 | [Be]2 d2 c2- c/B/A/G/ | %9
 FG/A/ BB G4 | [CEA]2 [DFB]2 [EGB]4- | [EGB]2 [CEA]2 [B,EG]2 [GB]2 | [Ac]8 | [GB]8 | z2 B,2 E2 G2 | %15
 [GB]4 [EA]4- | [EA]4 [B,EG]4- | [B,EG]4 [A,DF]4- | [A,DF]4 [B,EG]4- | [B,EG]4 [EGB]4- | %20
 [EGB]4 A4- | A4 G4- | G4 F4- | F4 G4 | A2 G2 F4 | E4 D4 |][M:3/4] G2 B2 B2 | [AB]4 [AB]2 | %28
 [GB]4 [Be]2 | e2 d4 | BB GB [Be]2 | [ce]6 | z c =Ac Fc | c2 B2 A2 | z d =Bd Gd | d2 c4 | %36
 [ce]2 c2 B2 | B2 =AF Ac | c2 d2 c2 | B2 d2 B2 | B2 c2 B2 | =A2 c2 A2 | d2 e2 f2 | c2 d2 e2 | %44
 [Bd]2 c4 | [FB]6 :: d2 B4 | c6 | c2 B2 B2 | B2 =A2 d2 | e2 c4 | d6 | d2 c2 c2 | c2 =BG Bd | %54
 [Gc]6 | z c =Ac Fc | c2 B4 | z B GB EB | B2 A2 G2 | F2 G2 A2 | [EG]2 [DA]2 [FG]2 | G4 z2 | %62
 c2 A2 c2 | c2 Bd Bd | f2 e2 f2 | [GBe]2 [A_d]2 [EBd]2 | c6 | A2 G2 B2 | A4 A2 | [FA][EG] [B,B]4 | %70
 BG Ec [GB]2 | cA GB A2 | [B,EG]2 [CEF]2 [B,A]2 | A2 G4 :| z/8 |[M:4/4] x4 c2 =B2 | cG=A=B [Ec]4 | %77
 B4 [Fc]2 [FB]2 | [EG]4 [B,F]4 | EBcd [Ge]4 | ed/c/ [Fd]2 [Ec]4 | [FB]4 [GB]2 [CA][FB] | %82
 [Gc]4 [FA]2 cf | f2 e4 d2- | [Gd]2 [Gc][ce] [Gd]4 | cG=A=B [Ec]4 | B4 c4 | [DF=B]2 [CEc]2 c2 B2 | %88
 [CEGc]8 |][M:3/4] z B GB FB | Ee de cd | eB c2 BA | GB ed eB | GF GA Be | fe dc B=A | Bc dB FE | %96
 DC D(F [FB]2) :: [FB]4 [GB]2 | [GB]6 | B4 Bc | [FBd]2 z2 z2 | z B ed ec | B2 z2 z2 | z B c2 B2 | %104
 !fermata!G6 :: [EGc]2 [EG]2 [EGc]2 | [Ac]4 [G=B]2 | [EGc]2 [DGc]2 [DG=B]2 | [EGc]6 | G2 c2 d2 | %110
 e2 d2 [Be]2 | [Fc]2 B4 |1 [B,EG]6 :|2 [B,EG]6 |: [EGB]4 [EGc]2 | [Ac]2 B4 | [EGB]2 =A4 | %117
 [DFB]2 [E=A]2 [FB]2 | [GB]2 [Gc]2 [GBd]2 | [Ge]2 [_Gc]2 [ce]2 | [GBd]2 [G=Ae]2 [_GAd]2 | B6- | %122
 B2 G2 c2 | [CFc]2 z2 A2- | A2 [B,DF]2 [DFB]2 | [B,EB]2 z2 [B,E-G-]2 | [A,EG]2 [A,CE]2 [CEA]2 | %127
 A4 G2 | [CEG]2 [CF]2 [CDA]2 | [=B,DG]3 G =A=B | c4 [Ac]2 | [Ac]2 [G=B]2 [FB]2 | %132
 [CGc]2 [EAc]2 [DG=B]2 | !fermata![EGc]6 :| %134
V:6
 G2 F2 FAGc | [Ac]2 [FB]2 GE [EG]2 | [EA]2 AG FABA | =EEFC- CC- [CE]2 | x4 E3 E | %5
 B,C [B,E]2 [CE]2 z C | FEDB, GFEC | [CE]EAF- FE-EA- | AG-[GB][FA] E2 [EF]2 | E3 [DF] [B,E]4 | x8 | %11
 x8 | E4 F4 | D4 E4 | x2 B,6 | E2 _D2 C4- | C4 x4 | x8 | x8 | x8 | x4 [CE]4 | F4 [B,D]4 | %22
 E4 [A,C]4 | [B,D]4 [B,E]4 | [CE]2 [B,E]2 [=A,C]2 B,2 | [G,B,]2 [F,=A,]2 !fermata![F,B,]4 |] %26
[M:3/4] E4 G2 | F2 D2 F2 | F2 E2 G2 | B6 | E4 BE | B2 A2 G2 | [EF]4 E2 | [DF]6 | [FG]4 F2 | [EG]6 | %36
 F2 [EF]2 [DF]2 | [DF]4 z2 | [=Af]6 | [Gf]6 | [Ge]6 | [Fe]6 | [FB]4 [FB]2 | B6 | F2 [GB]2 [E=A]2 | %45
 E2 D4 :: [FB]4 [DF]2 | [EF]6 | [DF]4 [DF]2 | [CF]4 [F=B]2 | [Gc]4 [EG]2 | [FG]6 | [EG]4 [EG]2 | %53
 [DG]4 z2 | C2 E4 | [EF]6 | [DF]6 | [EF]4 [DE]2 | [CE]6 | C4 [CD]2 | C2 C2 =B,D | [DF]2 [CE]G EG | %62
 [EF]6 | [DF]4 z2 | [Ad]4 [AB]2 | x6 | B2 A4 | x6 | x6 | x6 | E2 E2 E2 | [EF]2 E2 [A,E]2 | x4 DF | %73
 [B,E]6 :| x/4 |[M:4/4] [Gce]4 [Gd]4 | [CG]2 [CF][DF] G2 _A2 | [DA]2 [EG]2 E2 ED | B,4 E2 D2 | %79
 [B,E]2 [EA][FA] B2 (c2 | [Fc])[F=A]BA G2 FA | E2 D2- D=E F2 | F2 =E2 C2 [Fc]2 | %83
 [Gc]4 [Fc]2 [FG]2 | E>F G2 c2 =B2 | [CB]2 [CF][DF] G2 _A2 | [DA]2 [EG]2 [EG]2 F2 | z4 [DG]4 | %88
 x8 |][M:3/4] x6 | x6 | x6 | x6 | x6 | x6 | x6 | x2 D2- D2 :: D2 F2 E2 | F2 D2 F2 | GE F2 G2 | x6 | %101
 x6 | z B, ED EC | B,B BA GF | EB, E4 :: x6 | E2 D4 | x6 | x6 | [EG]4 [FB]2 | [EB]2 [AB]2 GE- | %111
 E2 [EG]2 [DF]2 |1 x6 :|2 x6 |: x6 | F2 F4 | x2 E4 | x6 | x6 | =A4 F2 | x6 | [DG]6 | %122
 [CG]2 [C=E]2 [EG]2 | x4 [CF]2 | [B,F]2 x4 | x6 | x6 | [CD]2 [=B,F]2 [DF]2 | x6 | x6 | z E GA x2 | %131
 x6 | x6 | x6 :| %134
V:7
 E,,2 B,,2 F,,2 C,2 | A,,2 B,,2 E,,2 E,2 | C,2 A,,2 _D,2 B,,2 | C,2 F,,2 C,2 C,,2 | %4
 F,,2 B,,2 E,,2 A,,2 | _D,2 E,2 A,,2 A,2 | F,2 B,2 G,2 C2 | A,2 F,2 C2 A,2 | E,2 B,,2 C,2 A,,2 | %9
 B,,2 B,,,2 E,,4- | E,,8 | E,,8 | E,,8 | E,,8 | E,,8- | E,,8 | E,,8 | E,,8 | E,,8- | E,,8- | E,,8 | %21
 E,,8 | E,,8 | E,,8 | E,,6 D,,2 | C,,4 !fermata!B,,,4 |][M:3/4] E,B, G,B, E,B, | D,B, F,B, D,B, | %28
 E,B, G,B, E,B, | B,,B, A,B, F,A, | G,E, E,,E, G,,E, | A,,E, C,E, B,,E, | =A,,F, F,,F, A,,F, | %33
 B,,F, D,F, C,F, | =B,,D, G,,D, _B,,D, | C,E, G,,E, B,,E, | =A,,C, F,=A, B,B,, | F,E, F,G, F,E, | %38
 D,D F,D D,D | G,D B,D G,D | C,C E,C C,C | F,C =A,C F,C | B,,B, C,B, D,B, | E,B, F,B, G,B, | %44
 F,B, E,B, F,=A, | B,,B, F,D, B,,2 :: B,,F, D,F, B,,F, | =A,,F, C,F, A,,F, | B,,F, D,F, B,,F, | %49
 F,,F, E,F, D,F, | C,G, E,G, C,G, | =B,,G, D,G, B,,G, | C,G, E,G, C,G, | G,,G, D,G, F,G, | %54
 E,G, C,G, B,,G, | =A,,F, F,,F, A,,F, | B,,F, D,F, B,,F, | G,,E, E,,E, G,,E, | A,,E, C,E, B,,E, | %59
 A,,C, G,,C, F,,C, | G,,C, F,,C, G,,=B,, | C,C G,E, C,B, | =A,C F,C A,C | B,D B,F, D,F, | %64
 B,,B, C,B, D,B, | E,B, F,B, G,B, | A,C A,F, D,F, | G,B, G,E, C,E, | F,A, F,D, B,,D, | %69
 E,B,, E,,E, F,,E, | G,,E, A,,E, B,,E, | A,,E, B,,E, C,E, | B,,E, A,,E, B,,D, | E,E,, G,,B,, E,2 :| %74
 z/8 |[M:4/4] C,,D,,E,,F,, G,,A,,G,,F,, | E,,3 D,, C,,C, F,,G,,/A,,/ | %77
 B,,B,,, E,,F,,/G,,/ A,,F,,B,,B,,, | E,,F,,G,,A,, B,,C,B,,A,, | G,,3 F,, E,,E,/D,/ C,B,, | %80
 =A,,F,, B,,2- B,,A,,/G,,/ A,,F,, | B,,B,,,B,,A,, G,,2 A,,_D, | C,B,,C,C,, F,,G,,A,,B,, | %83
 C,C,CB, =A,G,/A,/ =B,A,/B,/ | CC,/D,/ E,F, G,A,G,F, | E,3 D, C,C F,G,/A,/ | %86
 B,B,, E,F,/G,/ A,/G,/F,/E,/ D,/E,/F,/D,/ | G,4 G,,4 | [C,,C,]8 |][M:3/4] z2 B,4 | z2 B,2 E2 | %91
 E3 E D2 | E6 | z2 B,2 E2 | z2 C4 | B,4 =A,2 | B,6 :: B,,B, A,B, G,B, | D,B, F,B, B,,B, | %99
 E,B, D,B, E,B, | B,,2 z B, CD | E2 B,2 C2 | G,2 A,2 F,2 | G,2 A,2 B,2 | E,3 B,, E,,2 :: %105
 C,2 C2 B,2 | A,2 F,2 G,2 | C,2 G,2 G,,2 | C,2 E,2 G,2 | C2 B,2 A,2 | G,2 F,2 E,2 | A,2 B,2 B,,2 |1 %112
 E,F, G,F, E,D, :|2 E,2 B,,2 E,,2 |: E,2 D,2 C,2 | D,2 G,2 G,,2 | C,2 F,2 F,,2 | B,,2 C,2 D,2 | %118
 E,2 E2 D2 | C2 E2 =A,2 | B,2 C2 D2 | G,F, G,A, G,F, | =E,2 C2 B,2 | A,2 z2 F,2 | D,2 B,2 A,2 | %125
 G,2 z2 E,2 | C,2 A,2 G,2 | F,2 D,2 =B,,2 | C,2 A,,2 F,,2 | G,,2 =B,,2 G,,2 | C,G,, A,,G,, F,,E,, | %131
 F,,D, G,,F,, E,,D,, | E,,2 F,,2 G,,2 | C,,6 :| %134
V:8
 x8 | x8 | x8 | G2 A2 F2 x2 | FE=DF D2 C2 | F2 x6 | x8 | x8 | x4 GE x2 | x8 | x8 | x8 | x8 | x8 | %14
 x4 E4 | x8 | x8 | x8 | x8 | x8 | x8 | x8 | x8 | x8 | x8 | x8 |][M:3/4] x6 | x6 | x6 | F3 F DF | %30
 x6 | x6 | x6 | x6 | x6 | x6 | x6 | x6 | x6 | x6 | x6 | x6 | x6 | G2 F2 E2 | x6 | x6 :: x6 | x6 | %48
 x6 | x6 | x6 | x6 | x6 | x6 | x6 | x6 | x6 | x6 | x6 | x6 | x6 | x6 | x6 | x6 | x6 | x6 | E4 F2 | %67
 F2 E4 | [EG]2 [DF]4 | B,2 G2 F2 | x6 | x6 | x6 | x6 :| x/4 |[M:4/4] x8 | x8 | x8 | x8 | x8 | x8 | %81
 x8 | x8 | x8 | x8 | x8 | x8 | x8 | x8 |][M:3/4] x6 | x6 | x6 | x6 | x6 | x6 | x6 | x6 :: x6 | x6 | %99
 x6 | x6 | x6 | x6 | x6 | x6 :: x6 | x6 | x6 | x6 | x6 | x6 | x6 |1 x6 :|2 x6 |: x6 | x6 | x6 | %117
 x6 | x6 | x6 | x6 | x6 | x6 | x6 | x6 | x6 | x6 | x6 | x6 | x6 | x E- E4 | D4 D2 | x6 | x6 :| %134
V:9
 x8 | x8 | x8 | x8 | x8 | x8 | x8 | x8 | x8 | x8 | x8 | x8 | x8 | x8 | x8 | x8 | x8 | x8 | x8 | %19
 x8 | x8 | x8 | x8 | x8 | x8 | x8 |][M:3/4] x6 | x6 | x6 | x6 | x6 | x6 | x6 | x6 | x6 | x6 | x6 | %37
 x6 | x6 | x6 | x6 | x6 | x6 | x6 | x6 | x6 :: x6 | x6 | x6 | x6 | x6 | x6 | x6 | x6 | x6 | x6 | %56
 x6 | x6 | x6 | x6 | x6 | x6 | x6 | x6 | x6 | x6 | x6 | x6 | x6 | x6 | x6 | x6 | x6 | x6 :| x/4 | %75
[M:4/4] x8 | x8 | x8 | x8 | x8 | x8 | x8 | x8 | x8 | x8 | x8 | x8 | x8 | x8 |][M:3/4] E,4 F,2 | %90
 G,4 A,2 | G,2 F,2 B,2 | z2 B,2 G,2 | E,6 | =A,4 F,2 | z2 D,2 F,2 | z2 F,2 B,,2 :: x6 | x6 | x6 | %100
 x6 | x6 | x6 | x6 | x6 :: x6 | x6 | x6 | x6 | x6 | x6 | x6 |1 x6 :|2 x6 |: x6 | x6 | x6 | x6 | %118
 x6 | x6 | x6 | x6 | x6 | x6 | x6 | x6 | x6 | x6 | x6 | x6 | x6 | x6 | x6 | x6 :| %134

